X: 4062
T: Blessings Of Gold
R: reel
M: 4/4
K: Dmajor
|:dB|A2Bd AFdc|~B3A ~B2 de|fafe d2 BA|FABd efdB|
AdBd AFdc|~B3A ~B2de|faba {^e}f2 =ed|BA (3Bcd ef:|
|:de|fa ~a2 bafe|faaf d3e|fa ~a2 bafe|dBBA {^A}B2 de|
fa ~a2 bafe|faba {^e}f2 =ed|BA (3Bcd efed|BA (3Bcd ef:|

